X: 17
T: Miss McLeod's
R: reel
M: 4/4
L: 1/8
K: Gmaj
|:G2BG dGBG|B2 BA BcBA|G2BG dGBG|A2 AG AcBA|
G2BG dGBG|B2 BA B2 d2|e3f edef|gedB A2 BA :||
|:G2 g2 edeg|B2BA BcBA|G2 g2 edeg|a3b aged|
G2gf edeg|B2 BA B2 d2|e3f edef|gedB A2 BA|
|:GBDG BDGB|DBBA BcBA|GBDG BDGB|ADFA DFAD|
GBDG BDGB|DBBA B3d|e3f edef|gedB A2 BA :||
|:g2 fg efge|dBBA (3Bcd ef|g2 fg ef g2|a3b c'bag|
g2 fg efge|dBBA B3d|e3f edef|gedB A2 BA :||


Tune 75	Setting 12557

